TV/Source/KMTV.svg

<svg height="688.79999mm" viewBox="0 0 883.83014 688.79999" width="883.83014mm" xmlns="http://www.w3.org/2000/svg" xmlns:xlink="http://www.w3.org/1999/xlink"><radialGradient id="a" cx="0" cy="0" gradientTransform="matrix(-9.1989226 -9.5743888 -9.5743888 9.1989226 138.08513 406.53353)" gradientUnits="userSpaceOnUse" r="1" spreadMethod="pad"><stop offset="0" stop-color="#fff"/><stop offset="1" stop-color="#26a9e1"/></radialGradient><g transform="translate(147.29433 621.18885)"><path d="m48.504821-52.177549-60.322959-90.590271 60.322959-64.06227zm249.581829-168.480961c-29.38539 0-47.09424 8.50165-64.09755 30.44369-12.02932-22.64757-26.52799-30.44369-58.41802-30.44369-22.64757 0-41.76748 10.26548-56.26615 30.09092v-24.76416h-62.792324-8.007785-74.468869l-46.388708 56.61892v-129.5709h-72.916694v265.13881h72.916694v-58.029981l12.770124-12.382081 40.003646 70.412062h68.083807 19.331568 54.290661v-106.88805c0-21.2365 8.85442-33.26582 24.44667-33.26582 16.61528 0 23.70587 8.85442 23.70587 29.3854v110.76847h73.62223v-106.88805c0-10.26549 1.0583-16.29778 3.56293-20.53097 3.52766-7.0906 12.02932-11.67655 20.53098-11.67655 16.2625 0 23.70586 9.91272 23.70586 30.79646v108.29911h74.32776v-126.36072c0-42.47301-27.23352-71.15287-67.9427-71.15287" fill="#fff"/><g fill="#27a9e1"><path d="m673.53181-23.127282h-86.35708l-48.85807-146.538928h-49.73998v68.64823c0 23.03561 3.17489 26.210502 26.56327 26.210502h3.52766c3.88042 0 4.23319 0 9.55995-.352765v53.091259c-15.59225 1.058297-24.09391 1.411063-38.23982 1.411063-35.02964 0-52.38572-5.644254-64.06227-20.530972-8.50166-10.618252-10.97102-21.236504-10.97102-46.000666v-82.476651h-31.85476v-45.68318h31.85476v-59.12355l73.62223-18.13217v77.25572h34.5005 46.52981 31.36089l29.38539 116.836048 31.50199-116.836048h74.68053z"/><path d="m330.86918 55.264343c-5.1151 0-8.8897-6.526168-8.8897-16.826931 0-9.771613 3.35128-16.685824 8.25472-16.615271 6.1734 0 8.81915 7.619743 8.81915 17.14442 0 9.771614-3.13962 16.297782-8.18417 16.297782m-.56443-45.5773465c-16.57999 0-28.15071 11.7471025-28.15071 28.7504155 0 19.649058 11.95876 29.173735 28.71514 29.173735 18.13216 0 28.22127-10.865187 28.22127-28.644586 0-17.708845-9.13664-29.2795645-28.7857-29.2795645"/><path d="m154.65912 55.73705h-3.03379v-34.147733h3.03379c8.50166 0 12.02932 7.937231 12.02932 16.368335 0 9.842167-3.52766 17.638292-12.02932 17.779398m0-44.554326h-24.44667v10.406593h4.974v34.147733h-4.974v10.477145h24.12918c19.71961 0 30.79646-10.336039 30.79646-28.256543 0-15.027825-11.07685-26.774928-30.47897-26.774928"/><path d="m384.52134 34.803925h-3.59821v-13.369825h3.98625c4.65651 0 7.30226 2.363531 7.30226 6.984763 0 4.197914-3.03379 6.385062-7.6903 6.385062m26.31633 15.415867v2.610467c0 1.587447-.67025 2.504638-1.86966 2.504638-1.44634 0-1.90493-1.940212-1.90493-5.326764 0-5.67953-4.974-10.406593-10.51242-11.182677 6.66727-.952468 11.64127-5.291488 11.64127-11.429614 0-8.960252-3.63349-16.191952-22.22425-16.191952h-26.0694v10.300763h4.48013v34.324116h-4.48013v10.371316h25.89302v-10.371316h-4.86817v-12.205698c7.12587 0 8.00778 1.728553 8.00778 8.889699 0 9.207189 5.04455 14.639783 15.55698 14.639783 8.8897 0 11.71182-6.067573 11.71182-12.593741v-4.33902z"/><path d="m89.503267 41.104323 5.220934-17.003313 5.291489 17.003313zm34.077183 14.780889-14.18119-44.695432h-30.796457v10.159656h3.280722l-10.829911 34.535776h-5.432594v10.336039h25.469693v-10.336039h-6.243955l1.693276-5.326764h16.438886l1.69328 5.326764h-7.619744v10.336039h32.136964v-10.336039z"/><path d="m-30.281901 21.427044h-3.915701l-19.261015 44.765985h-14.745612l-21.236503-44.765985h-4.056808v10.230209h-11.78238v-10.089103h-6.73783v34.18301h6.66728v10.441869h-29.84399v-10.441869h6.56144v-34.18301h-6.87893v10.089103h-11.78238v-20.460418h53.444025.352765 29.209012l-.07055 10.230209h-4.33902l6.808381 17.638292c1.305233 3.845148 2.328254 7.302253 2.504637 9.524678h.388043c.176383-2.222425 1.305233-6.067573 2.89268-10.01855l7.302252-17.14442h-4.162637l-.105829-10.230209h22.788673z"/><path d="m64.562722 21.345908h-4.409573v34.641605h4.409573v10.23021h-25.328587v-10.23021h4.550679l-.07055-26.281055v-4.656509h-.317489c-.634979 3.527659-1.76383 8.748593-2.328255 10.547699l-8.431107 30.620075h-16.756377l-8.9602523-31.39616c-.423319-1.34051-1.4463399-5.855913-1.693276-9.771614h-.3174892v31.008118h4.5859559v10.159656h-21.7303754v-10.159656h4.3037429v-34.712159h-4.2331899v-10.159656h30.373139l8.113614 29.455947 7.690295-29.455947h30.549522z"/><path d="m233.37176 28.584663h-13.8637v-7.02004h-12.84067v10.865188h15.23948v10.477145h-15.23948v12.840677h12.84067v-7.33753h13.8637v17.779399h-48.3642v-10.441869h5.07983v-34.18301h-5.07983v-10.371316h48.3642z"/><path d="m302.15757 28.584663h-14.18119v-7.02004h-12.13514v13.722591h15.23948v10.441869h-15.23948v10.01855h8.18417v10.441869h-29.80872v-10.441869h4.974v-34.18301h-4.974v-10.371316h47.94088z"/><path d="m497.163 66.20714h-31.25505v-10.230209h5.43259l-8.64276-13.369826-5.96175 4.938722v8.431104h4.33902v10.230209h-25.25803v-10.230209h4.33902v-34.641606h-4.33902v-10.124379h25.25803v10.124379h-4.33902v12.840677l14.922-12.840677h-5.75008v-10.124379h26.66909v10.124379h-4.62123l-11.64127 9.842167 16.19195 24.799439h4.65651z"/><path d="m546.91357 28.584663h-13.8637v-7.02004h-12.84067v10.865188h15.23948v10.477145h-15.23948v12.840677h12.84067v-7.33753h13.8637v17.779399h-48.3642v-10.441869h5.07983v-34.18301h-5.07983v-10.371316h48.3642z"/><path d="m611.27922 21.345908h-5.29149v44.871815h-17.25025l-20.42514-29.985097v19.825441h6.1734v10.159656h-24.62305v-10.159656h4.72706v-34.712159h-4.65651v-10.159656h23.03561l19.71961 28.891522-.10583-18.731866h-5.43259v-10.159656h24.12918z"/><path d="m666.09198 31.657253h-11.78238v-10.089103h-6.73783v34.18301h6.66728v10.441869h-29.84399v-10.441869h6.56144v-34.18301h-6.87893v10.089103h-11.78238v-20.460419h53.79679z"/></g><path d="m643.00345-401.25346-526.82051 114.43724c-6.70255 1.44634-10.82991-2.82213-9.13663-9.4894l46.60037-223.93576c1.69327-6.66727 8.64276-12.48791 15.48642-12.9465l319.28836-63.32147c8.04306-1.34051 10.82991.0706 10.86519.10583 2.78685 1.12885 5.36204 3.316 9.84216 8.50165l137.89617 174.61909c4.5154 5.18566 2.68102 10.61826-4.02153 12.02932m33.37165-2.50464-159.90876-200.05351c-5.07982-5.85591-13.58148-11.53544-23.52948-9.4894-4.48012.91719-346.20439 64.90892-346.20439 64.90892-10.82991.74081-20.74264 8.99553-23.00034 16.54472l-70.024016 258.64791c-9.242465 31.25505 15.486421 50.6219 40.532795 44.87181l575.184701-133.98046c16.08612-4.12736 22.50646-23.49421 6.94949-41.44999" fill="#fff"/><path d="m133.646 400.571c-.126-.026-9.814-1.84-9.814-1.84-.307-.021-.588-.255-.652-.469l-1.985-7.333c-.262-.885.439-1.434 1.149-1.271l16.305 3.797c.456.118.638.667.198 1.175l-4.534 5.672c-.123.142-.318.281-.55.281-.037 0-.077-.004-.117-.012m-10.939-8.986 1.321 6.348c.048.188.246.353.439.366l9.052 1.795c.227.039.307-.002.307-.002.079-.032.153-.094.279-.241l3.909-4.951c.128-.146.077-.3-.114-.34l-14.934-3.245c-.024-.005-.048-.008-.07-.008-.148 0-.231.114-.189.278" fill="url(#a)" transform="matrix(35.276584 0 0 -35.276584 -4220.4028 13510.011)"/></g></svg>

<?xml version="1.0" encoding="UTF-8" standalone="no"?>
<!-- Created with Inkscape (http://www.inkscape.org/) -->

<svg
   xmlns:dc="http://purl.org/dc/elements/1.1/"
   xmlns:cc="http://creativecommons.org/ns#"
   xmlns:rdf="http://www.w3.org/1999/02/22-rdf-syntax-ns#"
   xmlns:svg="http://www.w3.org/2000/svg"
   xmlns="http://www.w3.org/2000/svg"
   xmlns:sodipodi="http://sodipodi.sourceforge.net/DTD/sodipodi-0.dtd"
   xmlns:inkscape="http://www.inkscape.org/namespaces/inkscape"
   width="883.83014mm"
   height="688.79999mm"
   viewBox="0 0 883.83014 688.79999"
   version="1.1"
   id="svg8617"
   inkscape:version="0.92.1 r15371"
   sodipodi:docname="KMTV.svg">
  <defs
     id="defs8611">
    <radialGradient
       fx="0"
       fy="0"
       cx="0"
       cy="0"
       r="1"
       gradientUnits="userSpaceOnUse"
       gradientTransform="matrix(-9.1989226,-9.5743888,-9.5743888,9.1989226,138.08513,406.53353)"
       spreadMethod="pad"
       id="radialGradient642">
      <stop
         style="stop-opacity:1;stop-color:#ffffff"
         offset="0"
         id="stop638" />
      <stop
         style="stop-opacity:1;stop-color:#26a9e1"
         offset="1"
         id="stop640" />
    </radialGradient>
    <clipPath
       clipPathUnits="userSpaceOnUse"
       id="clipPath564">
      <path
         d="m 109.842,380.062 h 33.945 v 23.308 h -33.945 z"
         id="path562"
         inkscape:connector-curvature="0" />
    </clipPath>
  </defs>
  <sodipodi:namedview
     id="base"
     pagecolor="#ffffff"
     bordercolor="#666666"
     borderopacity="1.0"
     inkscape:pageopacity="0.0"
     inkscape:pageshadow="2"
     inkscape:zoom="0.175"
     inkscape:cx="147.71333"
     inkscape:cy="1852.544"
     inkscape:document-units="mm"
     inkscape:current-layer="layer1"
     showgrid="false"
     fit-margin-top="0"
     fit-margin-left="0"
     fit-margin-right="0"
     fit-margin-bottom="0"
     inkscape:window-width="1920"
     inkscape:window-height="1017"
     inkscape:window-x="-8"
     inkscape:window-y="-8"
     inkscape:window-maximized="1" />
  <metadata
     id="metadata8614">
    <rdf:RDF>
      <cc:Work
         rdf:about="">
        <dc:format>image/svg+xml</dc:format>
        <dc:type
           rdf:resource="http://purl.org/dc/dcmitype/StillImage" />
        <dc:title></dc:title>
      </cc:Work>
    </rdf:RDF>
  </metadata>
  <g
     inkscape:label="Layer 1"
     inkscape:groupmode="layer"
     id="layer1"
     transform="translate(147.29433,621.18885)">
    <path
       inkscape:connector-curvature="0"
       id="path568"
       style="fill:#ffffff;fill-opacity:1;fill-rule:nonzero;stroke:none;stroke-width:35.27658463"
       d="m 48.504821,-52.177549 -60.322959,-90.590271 60.322959,-64.06227 z M 298.08665,-220.65851 c -29.38539,0 -47.09424,8.50165 -64.09755,30.44369 -12.02932,-22.64757 -26.52799,-30.44369 -58.41802,-30.44369 -22.64757,0 -41.76748,10.26548 -56.26615,30.09092 v -24.76416 H 56.512606 48.504821 -25.964048 l -46.388708,56.61892 v -129.5709 h -72.916694 v 265.13881 h 72.916694 v -58.029981 l 12.770124,-12.382081 40.003646,70.412062 h 68.083807 19.331568 54.290661 v -106.88805 c 0,-21.2365 8.85442,-33.26582 24.44667,-33.26582 16.61528,0 23.70587,8.85442 23.70587,29.3854 v 110.76847 h 73.62223 v -106.88805 c 0,-10.26549 1.0583,-16.29778 3.56293,-20.53097 3.52766,-7.0906 12.02932,-11.67655 20.53098,-11.67655 16.2625,0 23.70586,9.91272 23.70586,30.79646 v 108.29911 h 74.32776 v -126.36072 c 0,-42.47301 -27.23352,-71.15287 -67.9427,-71.15287" />
    <path
       inkscape:connector-curvature="0"
       id="path572"
       style="fill:#27a9e1;fill-opacity:1;fill-rule:nonzero;stroke:none;stroke-width:35.27658463"
       d="M 673.53181,-23.127282 H 587.17473 L 538.31666,-169.66621 h -49.73998 v 68.64823 c 0,23.03561 3.17489,26.210502 26.56327,26.210502 h 3.52766 c 3.88042,0 4.23319,0 9.55995,-0.352765 v 53.091259 c -15.59225,1.058297 -24.09391,1.411063 -38.23982,1.411063 -35.02964,0 -52.38572,-5.644254 -64.06227,-20.530972 -8.50166,-10.618252 -10.97102,-21.236504 -10.97102,-46.000666 v -82.476651 h -31.85476 v -45.68318 h 31.85476 v -59.12355 l 73.62223,-18.13217 v 77.25572 h 34.5005 46.52981 31.36089 l 29.38539,116.836048 31.50199,-116.836048 h 74.68053 z" />
    <path
       inkscape:connector-curvature="0"
       id="path576"
       style="fill:#27a9e1;fill-opacity:1;fill-rule:nonzero;stroke:none;stroke-width:35.27658463"
       d="m 330.86918,55.264343 c -5.1151,0 -8.8897,-6.526168 -8.8897,-16.826931 0,-9.771613 3.35128,-16.685824 8.25472,-16.615271 6.1734,0 8.81915,7.619743 8.81915,17.14442 0,9.771614 -3.13962,16.297782 -8.18417,16.297782 M 330.30475,9.6869965 c -16.57999,0 -28.15071,11.7471025 -28.15071,28.7504155 0,19.649058 11.95876,29.173735 28.71514,29.173735 18.13216,0 28.22127,-10.865187 28.22127,-28.644586 0,-17.708845 -9.13664,-29.2795645 -28.7857,-29.2795645" />
    <path
       inkscape:connector-curvature="0"
       id="path580"
       style="fill:#27a9e1;fill-opacity:1;fill-rule:nonzero;stroke:none;stroke-width:35.27658463"
       d="m 154.65912,55.73705 h -3.03379 V 21.589317 h 3.03379 c 8.50166,0 12.02932,7.937231 12.02932,16.368335 0,9.842167 -3.52766,17.638292 -12.02932,17.779398 m 0,-44.554326 h -24.44667 v 10.406593 h 4.974 V 55.73705 h -4.974 v 10.477145 h 24.12918 c 19.71961,0 30.79646,-10.336039 30.79646,-28.256543 0,-15.027825 -11.07685,-26.774928 -30.47897,-26.774928" />
    <path
       inkscape:connector-curvature="0"
       id="path584"
       style="fill:#27a9e1;fill-opacity:1;fill-rule:nonzero;stroke:none;stroke-width:35.27658463"
       d="m 384.52134,34.803925 h -3.59821 V 21.4341 h 3.98625 c 4.65651,0 7.30226,2.363531 7.30226,6.984763 0,4.197914 -3.03379,6.385062 -7.6903,6.385062 m 26.31633,15.415867 v 2.610467 c 0,1.587447 -0.67025,2.504638 -1.86966,2.504638 -1.44634,0 -1.90493,-1.940212 -1.90493,-5.326764 0,-5.67953 -4.974,-10.406593 -10.51242,-11.182677 6.66727,-0.952468 11.64127,-5.291488 11.64127,-11.429614 0,-8.960252 -3.63349,-16.191952 -22.22425,-16.191952 h -26.0694 v 10.300763 h 4.48013 v 34.324116 h -4.48013 V 66.200085 H 385.7913 V 55.828769 h -4.86817 V 43.623071 c 7.12587,0 8.00778,1.728553 8.00778,8.889699 0,9.207189 5.04455,14.639783 15.55698,14.639783 8.8897,0 11.71182,-6.067573 11.71182,-12.593741 v -4.33902 z" />
    <path
       inkscape:connector-curvature="0"
       id="path588"
       style="fill:#27a9e1;fill-opacity:1;fill-rule:nonzero;stroke:none;stroke-width:35.27658463"
       d="M 89.503267,41.104323 94.724201,24.10101 100.01569,41.104323 Z M 123.58045,55.885212 109.39926,11.18978 H 78.602803 v 10.159656 h 3.280722 L 71.053614,55.885212 H 65.62102 V 66.221251 H 91.090713 V 55.885212 h -6.243955 l 1.693276,-5.326764 h 16.438886 l 1.69328,5.326764 H 97.052456 V 66.221251 H 129.18942 V 55.885212 Z" />
    <path
       inkscape:connector-curvature="0"
       id="path592"
       style="fill:#27a9e1;fill-opacity:1;fill-rule:nonzero;stroke:none;stroke-width:35.27658463"
       d="m -30.281901,21.427044 h -3.915701 L -53.458617,66.193029 H -68.204229 L -89.440732,21.427044 h -4.056808 v 10.230209 h -11.78238 V 21.56815 h -6.73783 v 34.18301 h 6.66728 v 10.441869 h -29.84399 V 55.75116 h 6.56144 V 21.56815 h -6.87893 v 10.089103 h -11.78238 V 11.196835 h 53.444025 0.352765 29.209012 l -0.07055,10.230209 h -4.33902 l 6.808381,17.638292 c 1.305233,3.845148 2.328254,7.302253 2.504637,9.524678 h 0.388043 c 0.176383,-2.222425 1.305233,-6.067573 2.89268,-10.01855 l 7.302252,-17.14442 h -4.162637 l -0.105829,-10.230209 h 22.788673 z" />
    <path
       inkscape:connector-curvature="0"
       id="path596"
       style="fill:#27a9e1;fill-opacity:1;fill-rule:nonzero;stroke:none;stroke-width:35.27658463"
       d="m 64.562722,21.345908 h -4.409573 v 34.641605 h 4.409573 v 10.23021 H 39.234135 v -10.23021 h 4.550679 l -0.07055,-26.281055 v -4.656509 h -0.317489 c -0.634979,3.527659 -1.76383,8.748593 -2.328255,10.547699 L 32.637413,66.217723 H 15.881036 L 6.9207837,34.821563 C 6.4974647,33.481053 5.4744438,28.96565 5.2275077,25.049949 H 4.9100185 V 56.058067 H 9.4959744 V 66.217723 H -12.234401 V 56.058067 h 4.3037429 V 21.345908 H -12.163848 V 11.186252 H 18.209291 L 26.322905,40.642199 34.0132,11.186252 h 30.549522 z" />
    <path
       inkscape:connector-curvature="0"
       id="path600"
       style="fill:#27a9e1;fill-opacity:1;fill-rule:nonzero;stroke:none;stroke-width:35.27658463"
       d="m 233.37176,28.584663 h -13.8637 v -7.02004 h -12.84067 v 10.865188 h 15.23948 v 10.477145 h -15.23948 v 12.840677 h 12.84067 v -7.33753 h 13.8637 v 17.779399 h -48.3642 V 55.747633 h 5.07983 v -34.18301 h -5.07983 V 11.193307 h 48.3642 z" />
    <path
       inkscape:connector-curvature="0"
       id="path604"
       style="fill:#27a9e1;fill-opacity:1;fill-rule:nonzero;stroke:none;stroke-width:35.27658463"
       d="m 302.15757,28.584663 h -14.18119 v -7.02004 h -12.13514 v 13.722591 h 15.23948 v 10.441869 h -15.23948 v 10.01855 h 8.18417 V 66.189502 H 254.21669 V 55.747633 h 4.974 v -34.18301 h -4.974 V 11.193307 h 47.94088 z" />
    <path
       inkscape:connector-curvature="0"
       id="path608"
       style="fill:#27a9e1;fill-opacity:1;fill-rule:nonzero;stroke:none;stroke-width:35.27658463"
       d="M 497.163,66.20714 H 465.90795 V 55.976931 h 5.43259 l -8.64276,-13.369826 -5.96175,4.938722 v 8.431104 h 4.33902 V 66.20714 H 435.81702 V 55.976931 h 4.33902 V 21.335325 h -4.33902 V 11.210946 h 25.25803 v 10.124379 h -4.33902 v 12.840677 l 14.922,-12.840677 h -5.75008 V 11.210946 h 26.66909 v 10.124379 h -4.62123 l -11.64127,9.842167 16.19195,24.799439 h 4.65651 z" />
    <path
       inkscape:connector-curvature="0"
       id="path612"
       style="fill:#27a9e1;fill-opacity:1;fill-rule:nonzero;stroke:none;stroke-width:35.27658463"
       d="m 546.91357,28.584663 h -13.8637 v -7.02004 H 520.2092 v 10.865188 h 15.23948 V 42.906956 H 520.2092 v 12.840677 h 12.84067 v -7.33753 h 13.8637 v 17.779399 h -48.3642 V 55.747633 h 5.07983 v -34.18301 h -5.07983 V 11.193307 h 48.3642 z" />
    <path
       inkscape:connector-curvature="0"
       id="path616"
       style="fill:#27a9e1;fill-opacity:1;fill-rule:nonzero;stroke:none;stroke-width:35.27658463"
       d="m 611.27922,21.345908 h -5.29149 V 66.217723 H 588.73748 L 568.31234,36.232626 v 19.825441 h 6.1734 V 66.217723 H 549.86269 V 56.058067 h 4.72706 V 21.345908 h -4.65651 V 11.186252 h 23.03561 l 19.71961,28.891522 -0.10583,-18.731866 h -5.43259 V 11.186252 h 24.12918 z" />
    <path
       inkscape:connector-curvature="0"
       id="path620"
       style="fill:#27a9e1;fill-opacity:1;fill-rule:nonzero;stroke:none;stroke-width:35.27658463"
       d="M 666.09198,31.657253 H 654.3096 V 21.56815 h -6.73783 v 34.18301 h 6.66728 V 66.193029 H 624.39506 V 55.75116 h 6.56144 V 21.56815 h -6.87893 V 31.657253 H 612.29519 V 11.196834 h 53.79679 z" />
    <path
       inkscape:connector-curvature="0"
       id="path624"
       style="fill:#ffffff;fill-opacity:1;fill-rule:nonzero;stroke:none;stroke-width:35.27658463"
       d="m 643.00345,-401.25346 -526.82051,114.43724 c -6.70255,1.44634 -10.82991,-2.82213 -9.13663,-9.4894 l 46.60037,-223.93576 c 1.69327,-6.66727 8.64276,-12.48791 15.48642,-12.9465 l 319.28836,-63.32147 c 8.04306,-1.34051 10.82991,0.0706 10.86519,0.10583 2.78685,1.12885 5.36204,3.316 9.84216,8.50165 l 137.89617,174.61909 c 4.5154,5.18566 2.68102,10.61826 -4.02153,12.02932 m 33.37165,-2.50464 -159.90876,-200.05351 c -5.07982,-5.85591 -13.58148,-11.53544 -23.52948,-9.4894 -4.48012,0.91719 -346.20439,64.90892 -346.20439,64.90892 -10.82991,0.74081 -20.74264,8.99553 -23.00034,16.54472 l -70.024016,258.64791 c -9.242465,31.25505 15.486421,50.6219 40.532795,44.87181 L 669.42561,-362.30811 c 16.08612,-4.12736 22.50646,-23.49421 6.94949,-41.44999" />
    <g
       transform="matrix(35.276584,0,0,-35.276584,-4220.4028,13510.011)"
       id="g626">
      <g
         id="g628">
        <g
           id="g634">
          <g
             id="g636">
            <path
               d="m 133.646,400.571 c -0.126,-0.026 -9.814,-1.84 -9.814,-1.84 v 0 c -0.307,-0.021 -0.588,-0.255 -0.652,-0.469 v 0 l -1.985,-7.333 c -0.262,-0.885 0.439,-1.434 1.149,-1.271 v 0 l 16.305,3.797 c 0.456,0.118 0.638,0.667 0.198,1.175 v 0 l -4.534,5.672 c -0.123,0.142 -0.318,0.281 -0.55,0.281 v 0 c -0.037,0 -0.077,-0.004 -0.117,-0.012 m -10.939,-8.986 1.321,6.348 c 0.048,0.188 0.246,0.353 0.439,0.366 v 0 l 9.052,1.795 c 0.227,0.039 0.307,-0.002 0.307,-0.002 v 0 c 0.079,-0.032 0.153,-0.094 0.279,-0.241 v 0 l 3.909,-4.951 c 0.128,-0.146 0.077,-0.3 -0.114,-0.34 v 0 l -14.934,-3.245 c -0.024,-0.005 -0.048,-0.008 -0.07,-0.008 v 0 c -0.148,0 -0.231,0.114 -0.189,0.278"
               style="fill:url(#radialGradient642);stroke:none"
               id="path644"
               inkscape:connector-curvature="0" />
          </g>
        </g>
      </g>
    </g>
  </g>
</svg>
